svgs/google_tv.svg

<svg xmlns="http://www.w3.org/2000/svg" width="192" height="192" fill="none" stroke="#000" stroke-width="12" xmlns:v="https://vecta.io/nano"><rect x="22" y="42" width="148" height="108" rx="16"/><g stroke-linejoin="round"><path d="M57 74h78v44H57z"/><path d="M57 85V62c0-11.046 8.954-20 20-20h0m48.5 32H150c11.046 0 20 8.954 20 20h0M65 118H42c-11.046 0-20-8.954-20-20h0m113 8v24c0 11.046-8.954 20-20 20h0" stroke-linecap="round"/></g></svg>

<svg width="192" height="192" viewBox="0 0 192 192" fill="none" xmlns="http://www.w3.org/2000/svg">
<rect x="22" y="42" width="148" height="108" rx="16" stroke="black" stroke-width="12"/>
<rect x="57" y="74" width="78" height="44" stroke="black" stroke-width="12" stroke-linejoin="round"/>
<path d="M57 85V62C57 50.9543 65.9543 42 77 42V42" stroke="black" stroke-width="12" stroke-linecap="round" stroke-linejoin="round"/>
<path d="M125.5 74H150C161.046 74 170 82.9543 170 94V94" stroke="black" stroke-width="12" stroke-linecap="round" stroke-linejoin="round"/>
<path d="M65 118L42 118C30.9543 118 22 109.046 22 98V98" stroke="black" stroke-width="12" stroke-linecap="round" stroke-linejoin="round"/>
<path d="M135 106V130C135 141.046 126.046 150 115 150V150" stroke="black" stroke-width="12" stroke-linecap="round" stroke-linejoin="round"/>
</svg>
